X: 1
T: Cocklawburn
C: Muriel A Johnstone
F: http://www.math.mun.ca/~bshawyer/reels/Cocklawburn.abc
F: http://terrytraub.org/abc/CocklawburnR.abc (for Terry's chords)
R: Reel
K: D
M: 4/4
L: 1/8
FG |\
"D"AFEF DFEF | "D"A2 dA BAFA |\
"G"B2 gB "D"A2 fA | "Em"G2 ed "A"cBAG ||\
"D"AF EF DF EF | "D"A2 dA BAFA |
"A"EFGA Bcde | "D"f2 d2 d2 :| fg |\
"D"a2 fd "G"edBd | "D"A2 de fdfa |\
"G"bdcd "D"adcd | "Em"gfed "A"e2 fg ||
"D"a2 fd "G"edBd | "D"A2 de fdfa |\
"G"bdcd "D"adcd | "A"eABc d2 fg |]\
"D"a2 fd "G"edBd | "D"A2 de fdfa |
"G"bdcd "D"adcd | "Em"gfed "A"cBAG ||\
"D"FDCD "G"BDCD | "D"A2 dc BAGF |\
"A"EFGA Bcde | "D"f2 d2 d2 |]
